X:1
L:1/8
M:2/2
K:Dmin
 E | Ddd^c d3 f |{f} edcd efga | fde^c d2 AF | GBAG FDD :| E2 | FGAc F/F/F A2 | F>GAc BGGg | 
 fde^c d2 AF | G/A/B A>G FDDE | FGAc F/F/F A2 | FGAc BGGg | fde^c d2 AF | G/A/B AG FDD ||
